X:2
T:Articulations
C:Ali Corbin
M:4/4
L:1/4
Q:1/4=100
%%MIDI program 71 % Clarinet
K:C transpose=-2
.C.C.C.C|(DDDD)|(.E.E.E.E)|!trill!F4|!lowermordent!GGGG|!uppermordent!AAAA|!pralltriller!BBBB|!accent!cccc|!emphasis!BBBB|!tenuto!A!tenuto!A!tenuto!A!tenuto!A|(!tenuto!G!tenuto!G!tenuto!G!tenuto!G)|!+!F!+!F!+!F!+!F|!wedge!E!wedge!E!wedge!E!wedge!E|!breath!DDDD|CCCC||